X: 10291
Q: "Grazioso"
M: 6/8
L: 1/8
K: A
[|\
c3 {e/}dcd | e3 bec | B2B c2c | dfd B2c |\
c3 {e/}dcd | e3 aec | B2B c2c | dfd B2^B |\
c2c {e/}dcd | e2(^e f2)a | A2A {c/}BAB | A3- A2a |
(g2b) (e2g) | a2(e c2)f | (e2d) (B2c) | A3- A2a |\
(g2b e2g) | (a2e c2f) | (e2d B2c) | A2(e/f/e/f/) e.g.g |
.a(e/f/e/f/) e.g.g | (a2c') (a2c') | .a3 .a3 | .a3 z2z |]


